X:13
T:Pleyels Favorite Air
N:page 14 on manuscript
M:2/4
L:1/8
K:C
e | e(f/e/) d(e/d/) | (c2 G)c | dddd | (g2 e)e | e(f/e/) d(e/d/) | (c2 G)c | dd d(d/e/) | c3 H:|]
G | GG ~B2 | GG ~c2 | fefg | e2 cG | GG ~B2 | GG ~c2 | edec | g3 +D.C.+ |]

